assets/sonr-icons/sale.svg

<svg xmlns="http://www.w3.org/2000/svg" width="24" height="24" fill="none" viewBox="0 0 24 24"><path fill="#000" d="M16.5188 7.48118C16.1439 7.10628 15.5361 7.10628 15.1612 7.48118L7.48117 15.1612C7.10627 15.5361 7.10627 16.1439 7.48117 16.5188 7.85607 16.8937 8.46391 16.8937 8.83882 16.5188L16.5188 8.83882C16.8937 8.46392 16.8937 7.85608 16.5188 7.48118ZM9.11999 7.68C8.3248 7.68 7.67999 8.32481 7.67999 9.12 7.67999 9.91519 8.3248 10.56 9.11999 10.56 9.91519 10.56 10.56 9.9152 10.56 9.12 10.56 8.32481 9.91518 7.68 9.11999 7.68ZM14.88 13.44C14.0848 13.44 13.44 14.0848 13.44 14.88 13.44 15.6752 14.0848 16.32 14.88 16.32 15.6752 16.32 16.32 15.6752 16.32 14.88 16.32 14.0848 15.6752 13.44 14.88 13.44Z"/><path fill="#000" fill-rule="evenodd" d="M15.0087 2.54839C13.275 1.07063 10.7254 1.07054 8.99157 2.54812C8.55541 2.91911 8.01462 3.14301 7.44397 3.18902C5.17353 3.36939 3.37053 5.17372 3.18898 7.44429C3.14398 8.01307 2.91955 8.55477 2.54836 8.99029C1.07054 10.7241 1.07055 13.2739 2.54838 15.0077C2.91896 15.4426 3.14298 15.9831 3.18901 16.554C3.36938 18.8245 5.1738 20.6275 7.44437 20.809C8.01422 20.854 8.55586 21.0785 8.99128 21.4496C10.7251 22.9275 13.2749 22.9275 15.0087 21.4496C15.4435 21.079 15.9841 20.855 16.555 20.809C18.8255 20.6286 20.6285 18.8243 20.81 16.5537C20.855 15.9849 21.0794 15.4432 21.4506 15.0077C22.9284 13.2739 22.9284 10.7241 21.4506 8.99029C21.08 8.55547 20.856 8.01489 20.81 7.44398C20.6296 5.17353 18.8253 3.37054 16.5547 3.18899C15.9859 3.14399 15.4442 2.91956 15.0087 2.54839ZM10.2367 4.00961C11.2529 3.14347 12.7471 3.14347 13.7632 4.00961C14.5056 4.64234 15.4298 5.02591 16.4029 5.10298C17.7341 5.20961 18.7905 6.26743 18.8961 7.59685C18.9742 8.56963 19.3562 9.49277 19.9894 10.2357C20.8555 11.2519 20.8555 12.7461 19.9894 13.7623C19.3565 14.5048 18.973 15.4291 18.896 16.4023C18.7892 17.7333 17.7314 18.7895 16.4021 18.8951C15.4294 18.9732 14.5062 19.3552 13.7632 19.9884C12.7471 20.8545 11.2529 20.8545 10.2367 19.9884C9.49413 19.3555 8.56977 18.972 7.59561 18.895C6.2646 18.7881 5.20851 17.7304 5.10291 16.4012C5.02479 15.4284 4.64283 14.5052 4.0096 13.7623C3.14346 12.7461 3.14348 11.2519 4.00963 10.2357C4.64235 9.49334 5.0259 8.56919 5.10297 7.59612C5.2096 6.26487 6.26742 5.20854 7.59684 5.10292C8.56974 5.02479 9.49316 4.64228 10.2367 4.00961Z" clip-rule="evenodd"/></svg>

<svg xmlns="http://www.w3.org/2000/svg" width="24" height="24" fill="none"><path fill="currentColor" d="M16.519 7.481a.96.96 0 0 0-1.358 0l-7.68 7.68A.96.96 0 1 0 8.84 16.52l7.68-7.68a.96.96 0 0 0 0-1.358M9.12 7.68a1.44 1.44 0 1 0 0 2.88 1.44 1.44 0 0 0 0-2.88m5.76 5.76a1.44 1.44 0 1 0 0 2.88 1.44 1.44 0 0 0 0-2.88"/><path fill="currentColor" fill-rule="evenodd" d="M15.009 2.548a4.64 4.64 0 0 0-6.017 0 2.73 2.73 0 0 1-1.548.641 4.64 4.64 0 0 0-4.255 4.255 2.7 2.7 0 0 1-.64 1.546 4.64 4.64 0 0 0 0 6.018c.37.435.594.975.64 1.546a4.64 4.64 0 0 0 4.255 4.255c.57.045 1.112.27 1.547.64a4.64 4.64 0 0 0 6.018 0c.434-.37.975-.594 1.546-.64a4.64 4.64 0 0 0 4.255-4.255c.045-.57.27-1.11.64-1.546a4.64 4.64 0 0 0 0-6.018 2.72 2.72 0 0 1-.64-1.546 4.64 4.64 0 0 0-4.255-4.255 2.7 2.7 0 0 1-1.546-.64M10.237 4.01a2.72 2.72 0 0 1 3.526 0 4.64 4.64 0 0 0 2.64 1.093 2.72 2.72 0 0 1 2.493 2.494 4.64 4.64 0 0 0 1.093 2.639 2.72 2.72 0 0 1 0 3.526 4.64 4.64 0 0 0-1.093 2.64 2.72 2.72 0 0 1-2.494 2.493 4.64 4.64 0 0 0-2.639 1.093 2.72 2.72 0 0 1-3.526 0 4.64 4.64 0 0 0-2.641-1.093 2.72 2.72 0 0 1-2.493-2.494 4.64 4.64 0 0 0-1.093-2.639 2.72 2.72 0 0 1 0-3.526 4.64 4.64 0 0 0 1.093-2.64 2.72 2.72 0 0 1 2.494-2.493 4.65 4.65 0 0 0 2.64-1.093" clip-rule="evenodd"/></svg>
